X:468
T: Nchtlicher Besuch mit dem Verlobungsring (177c), S. 389
N: T0356
O: Luxemburg
S: Singendes Volk, Esch-Alzette, 1937 posth.]
N: Heffingen, hhh Peter Wagener, 8.6.1935
R: Tage-, Wchter-, Fenstergang-, Stndchenlieder, Liebeslied]
M: 2/4
L: 1/8
K: C
G | c2BA | G2AG | F2G2 | E2z
G | c2BA | G2AG | F2G2 | E2z
G | GBdd | dBGG | EGcc | c2
cc | A2cA | G2AG | F2G2 | E2z
G | GBdd | dBGG | EGcc | c2
cc | A2cA | G2AG | F2G2 | E2z

@@@ Tune index: 8522
